lib/preview/nrk-logo-preview-nrk-nyheter-with-bg.svg

<svg width="114" height="24" viewBox="0 0 114 24" fill="none" xmlns="http://www.w3.org/2000/svg">
<rect width="114" height="24" fill="#1767CE"/>
<path d="M6.00427 18V6.00109H9.94146V18H6.00427ZM15.2981 7.91078L17.5623 18H13.2534L10.5498 6.00109H12.9664C13.5206 5.9939 14.0583 6.18925 14.4788 6.55039C14.8999 6.89638 15.1892 7.3767 15.2981 7.91078ZM18.1538 18V6.00109H22.091V18H18.1538ZM25.0647 10.5641C24.6405 10.5682 24.223 10.4572 23.8568 10.243C23.4955 10.0341 23.1954 9.73396 22.9865 9.3726C22.7721 9.00633 22.661 8.58876 22.6652 8.16432C22.6604 7.74246 22.7715 7.32738 22.9865 6.96443C23.1976 6.60699 23.4974 6.31009 23.8568 6.10252C24.2231 5.8885 24.6405 5.77751 25.0647 5.78138C25.4865 5.77684 25.9014 5.88793 26.2645 6.10252C26.6203 6.31191 26.9169 6.60856 27.1263 6.96443C27.3411 7.32748 27.4522 7.74249 27.4476 8.16432C27.4515 8.58873 27.3405 9.00623 27.1263 9.3726C26.9191 9.73238 26.6222 10.0323 26.2645 10.243C25.9014 10.458 25.4862 10.5691 25.0642 10.5641H25.0647ZM28.0559 18V6.00109H31.9934V18H28.0559ZM36.978 12.5582C36.9891 12.5699 37.0735 12.7079 37.2314 12.9723C37.3893 13.2367 37.5949 13.5747 37.8482 13.9863C38.1017 14.3977 38.3692 14.8343 38.6506 15.296C38.932 15.7577 39.1969 16.1944 39.4451 16.6058C39.6924 17.0172 39.974 17.4819 40.29 18H35.9641C35.6936 17.5606 35.4484 17.1635 35.2287 16.8086C35.0091 16.4537 34.7756 16.0706 34.5281 15.6594C34.2801 15.2485 34.0349 14.8485 33.7925 14.4595C33.5501 14.0704 33.3418 13.7296 33.1675 13.4371C32.9925 13.1443 32.8713 12.9471 32.8039 12.8455C32.6368 12.5934 32.5379 12.3023 32.517 12.0005C32.5337 11.7109 32.6269 11.431 32.787 11.1891C32.8546 11.0764 32.9786 10.8764 33.1588 10.5891C33.339 10.3018 33.5503 9.96105 33.7925 9.56672C34.0347 9.17239 34.2799 8.7696 34.5281 8.35837C34.7763 7.94715 35.0098 7.56124 35.2287 7.20071C35.4488 6.84055 35.6939 6.44059 35.9641 6.00081H40.29L36.9439 11.4595C36.8404 11.6216 36.782 11.8083 36.7749 12.0005C36.786 12.2023 36.8565 12.3963 36.9774 12.5582H36.978Z" fill="white"/>
<path d="M53.4571 15.1276L46.2375 5.98893H44.8615V18.0008H46.4583V8.85712L53.6952 18.0008H55.0712V5.98893H53.4574L53.4571 15.1276Z" fill="#D4EEFC"/>
<path d="M63.5139 9.45718L63.5006 15.793C63.3769 15.8649 63.2534 15.934 63.1325 15.996C62.9261 16.1019 62.7134 16.195 62.4955 16.2749C62.2892 16.3517 62.0758 16.4083 61.8585 16.4441C61.6366 16.4789 61.4123 16.4959 61.1877 16.4948C60.8402 16.5087 60.4949 16.4329 60.1855 16.2746C59.9172 16.1198 59.7104 15.8781 59.5994 15.5897C59.4585 15.2199 59.392 14.826 59.4038 14.4305V9.20285L57.6711 9.45659V14.7686C57.6504 15.41 57.7602 16.0489 57.9941 16.6468C58.1818 17.113 58.5274 17.499 58.9709 17.738C59.4748 17.9844 60.0319 18.1034 60.5929 18.0846C61.0614 18.0877 61.5269 18.0106 61.9692 17.8565C62.4054 17.7011 62.8172 17.4845 63.192 17.2133C63.2953 17.1391 63.3975 17.0605 63.4994 16.9787L63.4978 17.7118C63.4978 18.5577 63.2996 19.2006 62.9032 19.6405C62.5068 20.0804 61.833 20.3003 60.8817 20.3003C60.6211 20.3003 60.3549 20.2889 60.0833 20.2662C59.8121 20.2438 59.5426 20.2044 59.2764 20.148C59.0102 20.0916 58.7412 20.0211 58.4692 19.9365C58.1972 19.852 57.9254 19.7533 57.6538 19.6405L57.8409 21.1462C58.0674 21.2361 58.3052 21.3178 58.5541 21.3915C58.8031 21.4652 59.0579 21.5272 59.3185 21.5776C59.579 21.6284 59.8508 21.6678 60.134 21.696C60.4171 21.7242 60.706 21.7382 61.0006 21.7381C61.6151 21.7484 62.2269 21.6541 62.8095 21.4592C63.3025 21.2928 63.7563 21.0279 64.143 20.6807C64.5041 20.3499 64.7858 19.9423 64.9672 19.4882C65.1592 18.9978 65.2544 18.475 65.2475 17.9487L65.2302 9.20171L63.5139 9.45718Z" fill="#D4EEFC"/>
<path d="M74.4193 9.54149C73.9202 9.28899 73.3649 9.16683 72.8055 9.18649C72.3069 9.18639 71.8112 9.26337 71.3363 9.41462C70.8536 9.56742 70.3937 9.78372 69.9686 10.0578C69.8406 10.1398 69.7169 10.227 69.5948 10.3197V5.22766L67.8621 5.48144V18.0008H69.5948V11.4998C69.729 11.4265 69.8666 11.3565 70.0107 11.2928C70.2512 11.1871 70.4981 11.0967 70.75 11.0221C70.9925 10.9503 71.2393 10.8938 71.4889 10.8529C71.7219 10.8143 71.9577 10.7945 72.1939 10.7937C72.4655 10.788 72.736 10.831 72.9923 10.9206C73.2085 10.9984 73.4014 11.1293 73.5532 11.3013C73.709 11.4879 73.8193 11.7079 73.8753 11.9442C73.9482 12.243 73.9827 12.5499 73.9778 12.8575V18.0006H75.7103V12.5022C75.733 11.8608 75.623 11.2216 75.3872 10.6242C75.1954 10.1655 74.8546 9.78425 74.4193 9.54149Z" fill="#D4EEFC"/>
<path d="M84.8667 10.4638C84.5405 10.0429 84.1102 9.71344 83.6179 9.50768C83.071 9.28556 82.4845 9.17629 81.894 9.1865C81.2989 9.17639 80.7084 9.29172 80.1613 9.52489C79.6636 9.74184 79.2199 10.0652 78.8617 10.472C78.4927 10.8996 78.2152 11.3977 78.0461 11.9357C77.8525 12.5514 77.758 13.1938 77.7661 13.839C77.7419 14.6542 77.9136 15.4633 78.2669 16.1991C78.5898 16.8366 79.1112 17.353 79.7533 17.671C80.5067 18.0244 81.3333 18.1955 82.1657 18.1701C82.5662 18.1734 82.9663 18.1479 83.3631 18.0939C83.6947 18.0463 84.0216 17.9698 84.3399 17.8655C84.6555 17.76 84.9623 17.6299 85.2575 17.4764L85.3761 16.1737C85.1609 16.2527 84.9429 16.3316 84.7221 16.4106C84.5012 16.4895 84.2719 16.56 84.0341 16.622C83.7942 16.6847 83.5501 16.7298 83.3036 16.7571C83.0555 16.7855 82.806 16.7997 82.5562 16.7997C82.1103 16.8069 81.6652 16.7585 81.2312 16.6559C80.8811 16.5724 80.5573 16.4039 80.2887 16.1652C80.0172 15.9078 79.818 15.5841 79.7111 15.2263C79.6001 14.8639 79.5378 14.4884 79.5256 14.1097H85.6649C85.7485 13.4099 85.7169 12.7012 85.5714 12.0116C85.452 11.4509 85.2115 10.9228 84.8667 10.4638ZM80.586 10.8696C80.9845 10.6287 81.4447 10.5083 81.9107 10.523C82.3773 10.4998 82.8381 10.6339 83.2187 10.9037C83.557 11.1726 83.7985 11.5437 83.9067 11.9611C83.9914 12.2698 84.0331 12.5885 84.0307 12.9085H79.563C79.5946 12.5711 79.667 12.2388 79.7788 11.9188C79.9238 11.4897 80.2077 11.1207 80.586 10.8696Z" fill="#D4EEFC"/>
<path d="M92.2648 16.6387L91.976 16.6897C91.8832 16.7061 91.7897 16.7174 91.6957 16.7235C91.6048 16.7295 91.5198 16.7317 91.4408 16.7317C91.1805 16.7389 90.922 16.6868 90.6849 16.5794C90.481 16.4834 90.3119 16.3269 90.2008 16.1314C90.0818 15.9107 90.0232 15.6627 90.0309 15.4124V10.726H92.4261L92.613 9.37257H90.0309V6.69923L88.2982 7.30857V9.37257H86.9902L86.803 10.726H88.2982V15.7677C88.2905 16.1038 88.3422 16.4387 88.4511 16.7571C88.5385 17.0091 88.674 17.2419 88.8503 17.4425C89.0119 17.6212 89.2085 17.7651 89.4279 17.8655C89.6525 17.968 89.8893 18.0418 90.1326 18.0852C90.3735 18.1295 90.6179 18.1522 90.863 18.1528C91.0442 18.1528 91.2227 18.1473 91.3984 18.1362C91.5741 18.1251 91.7355 18.1081 91.8825 18.0852C92.0295 18.0626 92.1685 18.0372 92.2987 18.0093C92.4289 17.9814 92.5391 17.9557 92.63 17.9329L92.7319 16.529C92.6657 16.5544 92.5976 16.5742 92.528 16.5882C92.4485 16.6048 92.3607 16.622 92.2648 16.6387Z" fill="#D4EEFC"/>
<path d="M100.835 10.4638C100.509 10.0429 100.079 9.71348 99.5863 9.50768C99.0393 9.28556 98.4528 9.17629 97.8621 9.1865C97.2671 9.17647 96.6766 9.2918 96.1294 9.52489C95.6317 9.74191 95.1881 10.0653 94.8298 10.472C94.461 10.8996 94.1836 11.3975 94.0145 11.9354C93.8209 12.5512 93.7264 13.1935 93.7345 13.8387C93.7105 14.6539 93.8822 15.463 94.2353 16.1988C94.5582 16.8364 95.0797 17.3528 95.7217 17.6707C96.4751 18.0241 97.3018 18.1951 98.1342 18.1698C98.5346 18.1731 98.9348 18.1476 99.3315 18.0936C99.6633 18.046 99.9902 17.9695 100.309 17.8652C100.624 17.7597 100.931 17.6296 101.226 17.4761L101.345 16.1734C101.129 16.2524 100.911 16.3313 100.691 16.4103C100.47 16.4892 100.24 16.5597 100.003 16.6218C99.7629 16.6844 99.5188 16.7295 99.2724 16.7568C99.0242 16.7852 98.7746 16.7994 98.5249 16.7994C98.0788 16.8066 97.6336 16.7583 97.1996 16.6556C96.8496 16.572 96.5257 16.4035 96.2571 16.165C95.9857 15.9074 95.7867 15.5838 95.6795 15.226C95.5685 14.8636 95.5063 14.4881 95.4944 14.1094H101.633C101.717 13.4097 101.685 12.7009 101.54 12.0113C101.42 11.4507 101.18 10.9227 100.835 10.4638ZM96.5541 10.8696C96.9527 10.6287 97.413 10.5083 97.8791 10.523C98.3456 10.4998 98.8065 10.634 99.1871 10.9037C99.5254 11.1726 99.7667 11.5437 99.8748 11.9611C99.9598 12.2697 100.002 12.5885 99.9988 12.9085H95.5314C95.5629 12.5712 95.6352 12.2388 95.7469 11.9188C95.892 11.4898 96.1759 11.1208 96.5541 10.8696Z" fill="#D4EEFC"/>
<path d="M107.307 9.31312C106.989 9.39791 106.686 9.52904 106.406 9.70224C106.117 9.88235 105.849 10.0952 105.608 10.3367C105.568 10.3764 105.529 10.4213 105.489 10.4633V9.20288L103.756 9.45662V18.0003H105.489V11.6089C105.618 11.5194 105.751 11.4364 105.888 11.3602C106.058 11.267 106.234 11.1851 106.415 11.1149C106.59 11.0468 106.768 10.9876 106.95 10.9373C107.136 10.8855 107.327 10.8487 107.519 10.8273C107.725 10.8046 107.932 10.7988 108.139 10.8101L108.343 9.22005C107.995 9.19514 107.645 9.22658 107.307 9.31312Z" fill="#D4EEFC"/>
</svg>

<svg xmlns="http://www.w3.org/2000/svg" viewBox="0 0 114 24"><path fill="#1767CE" d="M0 0h114v24H0z"/><path fill="#fff" d="M6.004 18V6.001h3.937V18H6.004Zm9.294-10.09L17.562 18h-4.309L10.55 6.001h2.416a2.276 2.276 0 0 1 1.513.55c.42.345.71.826.82 1.36ZM18.154 18V6.001h3.937V18h-3.937Zm6.91-7.436a2.383 2.383 0 0 1-2.4-2.4 2.303 2.303 0 0 1 .323-1.2 2.411 2.411 0 0 1 3.278-.861c.355.209.652.506.861.861.215.363.326.778.322 1.2a2.4 2.4 0 0 1-1.183 2.079 2.302 2.302 0 0 1-1.2.321ZM28.057 18V6.001h3.937V18h-3.937Zm8.922-5.442c.011.012.096.15.253.414.158.265.364.603.617 1.014a315.936 315.936 0 0 1 1.597 2.62c.247.411.529.876.845 1.394h-4.326c-.27-.44-.516-.837-.735-1.191-.22-.355-.453-.738-.7-1.15-.249-.41-.494-.81-.737-1.2-.242-.389-.45-.73-.625-1.022-.175-.293-.296-.49-.363-.591a1.748 1.748 0 0 1-.287-.845c.017-.29.11-.57.27-.812.068-.113.192-.313.372-.6s.391-.628.633-1.022c.243-.395.488-.797.736-1.209l.7-1.157.736-1.2h4.326l-3.346 5.458a1.08 1.08 0 0 0-.17.542c.012.201.082.395.203.557h.001Z"/><path fill="#D4EEFC" d="m53.457 15.128-7.22-9.14h-1.376v12.013h1.597V8.857l7.237 9.144h1.376V5.989h-1.614v9.139ZM63.514 9.457l-.013 6.336a8.05 8.05 0 0 1-.368.203c-.207.106-.42.199-.638.279-.206.077-.42.133-.636.17a4.197 4.197 0 0 1-.671.05 2.023 2.023 0 0 1-1.003-.22 1.351 1.351 0 0 1-.586-.685 3.004 3.004 0 0 1-.195-1.16V9.204l-1.733.254v5.312c-.02.641.09 1.28.323 1.878.188.466.533.852.977 1.091a3.431 3.431 0 0 0 1.622.347 4.1 4.1 0 0 0 1.376-.229 4.88 4.88 0 0 0 1.223-.643c.103-.074.206-.152.307-.234l-.001.733c0 .846-.198 1.489-.595 1.928-.396.44-1.07.66-2.021.66-.26 0-.527-.011-.799-.034a6.457 6.457 0 0 1-.807-.118 8.997 8.997 0 0 1-1.622-.508l.187 1.506a8.39 8.39 0 0 0 2.293.55c.283.028.572.042.867.042a5.416 5.416 0 0 0 1.809-.279 3.829 3.829 0 0 0 1.333-.778c.361-.331.643-.739.824-1.193.192-.49.287-1.013.28-1.54l-.017-8.746-1.716.255ZM74.42 9.541a3.317 3.317 0 0 0-1.615-.355c-.498 0-.994.077-1.469.229a5.696 5.696 0 0 0-1.741.905V5.228l-1.733.253v12.52h1.733V11.5a5.534 5.534 0 0 1 1.155-.478c.243-.072.49-.128.739-.17.233-.038.469-.058.705-.058.272-.006.542.037.798.127.216.077.41.208.561.38.156.187.266.407.322.643.073.299.108.606.103.913v5.144h1.732v-5.499a4.665 4.665 0 0 0-.323-1.878 2.221 2.221 0 0 0-.968-1.083ZM84.867 10.464a3.085 3.085 0 0 0-1.25-.956 4.38 4.38 0 0 0-1.723-.321 4.236 4.236 0 0 0-1.733.338c-.497.217-.941.54-1.3.947a4.141 4.141 0 0 0-.815 1.464 6.09 6.09 0 0 0-.28 1.903 5.102 5.102 0 0 0 .5 2.36 3.314 3.314 0 0 0 1.487 1.472 5.3 5.3 0 0 0 2.413.5c.4.002.8-.023 1.197-.077a5.77 5.77 0 0 0 1.894-.618l.12-1.302a84.56 84.56 0 0 1-.655.237c-.22.078-.45.149-.688.211-.24.063-.484.108-.73.135a6.571 6.571 0 0 1-.748.043 5.382 5.382 0 0 1-1.325-.144 2.18 2.18 0 0 1-.942-.49 2.137 2.137 0 0 1-.578-.94 4.284 4.284 0 0 1-.185-1.116h6.139c.084-.7.052-1.409-.094-2.098a3.945 3.945 0 0 0-.704-1.548Zm-4.281.406c.398-.241.859-.362 1.325-.347.466-.023.927.11 1.308.38.338.27.58.64.688 1.058.084.309.126.627.124.947h-4.468c.032-.337.104-.67.216-.99.145-.428.429-.797.807-1.048ZM92.265 16.639l-.289.05a2.564 2.564 0 0 1-.28.035c-.091.006-.176.008-.255.008a1.717 1.717 0 0 1-.756-.153 1.091 1.091 0 0 1-.484-.448 1.423 1.423 0 0 1-.17-.719v-4.686h2.395l.187-1.353h-2.582V6.699l-1.733.61v2.064H86.99l-.187 1.353h1.495v5.042c-.008.336.044.67.153.99.088.251.223.484.4.684.16.18.358.323.577.424.225.102.461.176.705.22.24.044.485.066.73.067.181 0 .36-.006.535-.017.176-.01.338-.028.484-.05a7.247 7.247 0 0 0 .748-.153l.102-1.404a1.265 1.265 0 0 1-.204.06c-.08.016-.167.033-.263.05ZM100.835 10.464a3.08 3.08 0 0 0-1.249-.956 4.382 4.382 0 0 0-1.724-.321 4.24 4.24 0 0 0-1.733.338c-.497.217-.94.54-1.3.947a4.143 4.143 0 0 0-.814 1.463 6.09 6.09 0 0 0-.28 1.904 5.107 5.107 0 0 0 .5 2.36 3.314 3.314 0 0 0 1.487 1.472c.753.353 1.58.524 2.412.499.4.003.8-.022 1.198-.076a5.785 5.785 0 0 0 1.894-.618l.119-1.303c-.216.08-.434.158-.654.237-.221.08-.451.15-.688.212-.24.062-.484.108-.73.135a6.576 6.576 0 0 1-.748.042 5.378 5.378 0 0 1-1.325-.143 2.183 2.183 0 0 1-.943-.491 2.142 2.142 0 0 1-.578-.939 4.27 4.27 0 0 1-.185-1.117h6.139c.084-.7.052-1.408-.093-2.098a3.95 3.95 0 0 0-.705-1.547Zm-4.28.406c.398-.241.858-.362 1.324-.347.467-.023.927.111 1.308.38.338.27.58.64.688 1.058.085.309.127.627.124.947H95.53c.032-.337.104-.67.216-.99.145-.428.429-.797.807-1.048ZM107.307 9.313a3.355 3.355 0 0 0-.901.39 4.46 4.46 0 0 0-.798.634c-.04.04-.079.084-.119.126v-1.26l-1.733.254V18h1.733V11.61a4.423 4.423 0 0 1 .926-.494 5.55 5.55 0 0 1 .535-.178 3.619 3.619 0 0 1 1.189-.127l.204-1.59a3.244 3.244 0 0 0-1.036.093Z"/></svg>
